X:1
T:Title
%%score { 1 | 2 }
L:1/8
Q:1/4=118
M:3/4
K:Ab
V:1 treble nm="Grand Piano"
V:2 bass 
V:1
 [CE]4 [DF]2 | [EA]4 B2 | c4 [EA]2 | [DF]4 [B,E]2 | [CE]4 [CE]2 | D4 D2 | C6- | C4 z2 | %8
w: Paul~S.~Hill *||||||||
 [CE]4 [DF]2 | [EA]4 [EB]2 | [Ec]4 [A,EA]2 | [A,DF]4 [A,CE]2 | [G,E]6 | [B,EG]4 [DGB]2 | A6- | %15
w: |||||||
 A4 z2 | c4 B2 | d4 c2 | [Ge]4 B2 | c6 | [FA]4 F2 | E4 E2 | [CE]6- | [CE]4 z2 |] %24
w: |||||||||
V:2
 [A,,A,]4 [D,A,]2 | [C,A,]4 [E,G,E]2 | [A,E]4 [C,A,]2 | [D,A,]4 [E,G,]2 | [A,,A,]4 [A,,A,]2 | %5
 [E,G,B,]4 [E,B,]2 | [A,,E,A,]6- | [A,,E,A,]4 z2 | [A,,A,]4 [D,A,]2 | [C,A,]4 [E,G,]2 | A,4 C,2 | %11
 D,4 A,,2 | E,6 | E,4 E,2 | [A,C]6- | [A,C]4 z2 | [A,E]4 [G,B,E]2 | [F,A,D]4 [E,A,E]2 | %18
 [E,B,]4 [E,G,E]2 | [A,E]6 | [D,D]4 [D,A,D]2 | [E,A,C]4 [E,G,B,]2 | [A,,A,]6- | [A,,A,]4 z2 |] %24

